X: 6
T: The Duke Of Leinster
R: reel
M: 4/4
L: 1/8
K: Gmaj
~G2GB dGBG | d2eB dBAB | ~G2GB dGBG | dBAB GEDE |
~G2GB dGBG | d2eB dBAB | G2Bd e2ge | dBAB GEde ||
~g2ga bg~g2 | agbg aged | ~g2ga bgeB | dBAB GEde |
~g2ga bg~g2 | ag~g2 bgeB | dgge d2ge | dBAB GEDE ||


Tune 1385	Setting 30094

